X:1
T:Vionica, 10.8.10.8 D
T:Vionica, 10.8.10.8 D
T:John M. Aiton, 1912
T:Public Domain Courtesy of the Cyber Hymnal™
C:John M. Aiton, 1912
Z:Public Domain
Z:Courtesy of the Cyber Hymnal™
%%score ( 1 2 ) ( 3 4 )
L:1/8
Q:1/4=90
M:6/8
K:Db
V:1 treble 
V:2 treble 
V:3 bass 
V:4 bass 
V:1
 D/D/ | [DF][DE]D [FA][EG][DF] | [CE]3 [CA]2 [DF] | [FA][EG][DF] [CE][DF][EG] | [DF]3 z2 D/D/ | %5
 [DF][DE]D [FA][EG][DF] | [CE]3 [CA]2 ([DF]/[EG]/) | [FA][EG][DF] [CE][CF][CE] | D4 z [DA]/[DA]/ | %9
 [DB][DB][DB] [DG][DA][DB] | [FA]3 [DF]2 ([DA]/[DA]/) | [DB][DB][DB] [Ed][Ec][EB] | %12
 [Ec]4 z [Ec]/[Ec]/ | [Fd][Fd][Fd] [Ge][Gd][GB] | [FA]3 [DF]2 ([DF]/[EG]/) | %15
 !fermata![FA][EG][DF] [CE]!fermata![CF][CE] | D4 |] %17
V:2
 D/D/ | x2 D x3 | x6 | x6 | x5 D/D/ | x2 D x3 | x6 | x6 | D4 x2 | x6 | x6 | x6 | x6 | x6 | x6 | %15
 x6 | D4 |] %17
V:3
 [D,F,]/[D,F,]/ | [D,A,][D,G,][D,F,] [D,A,][D,A,][D,A,] | [A,,A,]3 [A,,A,]2 [D,A,] | %3
 [D,A,][D,A,][D,A,] [A,,A,][A,,A,][A,,A,] | [D,A,]3 z2 [D,F,]/[D,F,]/ | %5
 [D,A,][D,G,][D,F,] [D,A,][D,A,][D,A,] | [A,,A,]3 [A,,A,]2 ([D,A,]/[D,A,]/) | %7
 [D,A,][C,A,][D,A,] [A,,A,][A,,G,][A,,G,] | [D,F,]4 z [D,F,]/[D,F,]/ | G,G,G, [G,B,][G,C][G,D] | %10
 [D,D]3 [D,A,]2 ([D,F,]/[D,F,]/) | G,_G,_G, [E,=G,][E,G,][E,G,] | A,4 z A,/A,/ | %13
 [D,A,][D,A,][D,A,] [G,B,][G,B,][G,D] | [D,D]3 [D,A,]2 ([D,A,]/[D,A,]/) | %15
 !fermata![D,A,][D,A,][D,A,] [A,,A,]!fermata![A,,A,][A,,G,] | [D,F,]4 |] %17
V:4
 x | x6 | x6 | x6 | x6 | x6 | x6 | x6 | x6 | G,G,G, x3 | x6 | =G,=G,=G, x3 | A,4 A,/A,/ x | x6 | %14
 x6 | x6 | x4 |] %17

